X:1
T:Ransomed and Redeemed
T:Ransomed and Redeemed
T:Charles Conway
T:Charles Conway, 1907
T:Public Domain Courtesy of the Cyber Hymnal™
T:Public Domain Courtesy of the Cyber Hymnal™
C:Charles Conway
Z:Public Domain
Z:Courtesy of the Cyber Hymnal™
%%score ( 1 2 ) ( 3 4 )
L:1/8
Q:1/4=100
M:4/4
K:Ab
V:1 treble 
V:2 treble 
V:3 bass 
V:4 bass 
V:1
 [CA]>[DB] | [Ec]2 [Ec]2 [Fd]>[Fc] [Fd]>[Af] | [Ae]6 [Bd]>[Ac] | [GB]2 [Ac]2 [Bd]>[Ac] [ce]>[Bd] | %4
w: 1.~There’s a|ran- som paid to pur- chase|me, By the|Lord who died on Cal- va-|
w: 2.~By His|death I mer- cy now have|found, And my|praise shall thro’ the earth re-|
w: 3.~Hal- le-|lu- jah! Je- sus is my|king! Come and|learn the song which now I|
w: 4.~Heav’n- ly|glo- ry fills my soul to-|day, It has|come there ev- er- more to|
 [Ac]6 [EA]>[EB] | [Ac]2 [Ec]2 [Fd]>[Fc] [Fd]>[Af] | [Ae]6 [Ac]>[Ac] | [GB]2 [Gd]2 [Ec]2 [DB]2 | %8
w: ry; Yes! from|ev- ery chain I am set|free! * *||
w: sound; I will|spread the joy- ful news a-|round! I am|ran- somed and re-|
w: sing; While I’m|rest- ing sweet- ly ’neath His|wing, * *||
w: stay; This my|song shall be a- long the|way, * *||
 [CA]6 z2 ||"^Refrain" [Ec]4- [Ec]>[DB] [CA]>[CE] | [DB]6 z2 | [Ed]4- [Ed]>[EB] [EG]>E | [Ec]6 z2 | %13
w: |||||
w: deemed!|Ran- * somed and re-|deemed!|Ran- * somed and re-|deemed!|
w: |||||
w: |||||
 [Ec]>[Ec] [Ec]>[Ec] [_Ge]2 [Ge]2 | [Fd]>[Fd] [Fd]>[Fd] [DF]2 [Fd]2 | [Ec]3 [CA] [Ec]2 [DB]2 | %16
w: |||
w: By the pre- cious blood of|Je- sus who was slain, I’m|ran- somed and re-|
w: |||
w: |||
 A6 |] %17
w: |
w: deemed!|
w: |
w: |
V:2
 x2 | x8 | x8 | x8 | x8 | x8 | x8 | x8 | x8 || x8 | x8 | x15/2 E/ | x8 | x8 | x8 | x8 | %16
 (C2 D2 C2) |] %17
V:3
 [A,,A,]>[A,,A,] | [A,,A,]2 [A,,A,]2 [D,A,]>[D,A,] [D,A,]>[D,D] | [A,C]6 [E,E]>[E,C] | %3
w: |||
 [E,C]2 [E,C]2 [E,E]>[E,E] [E,E]>[E,E] | [A,E]6 [A,C]>[A,D] | %5
w: ||
 [A,E]2 [A,C]2 [D,A,]>[D,A,] [D,A,]>[D,D] | [A,C]6 [A,E]>[A,E] | [B,E]2 [E,B,]2 [E,A,]2 [E,G,]2 | %8
w: |||
 [A,,A,]6 z2 || A,>A, A,>A, A,2 z2 | [E,G,]>[E,G,] [E,G,]>[E,G,] [E,G,]2 z2 | %11
w: |Ran- somed and re- deemed!|Ran- somed and re- deemed!|
 [E,B,]>[E,B,] [E,B,]>[E,B,] [E,B,]2 z2 | A,>A, A,>A, A,2 z2 | A,>A, A,>A, [C,A,]2 [C,A,]2 | %14
w: Ran- somed and re- deemed!|re- deemed! * * *||
 [D,A,]>[D,A,] [D,A,]>[D,A,] [D,A,]2 [D,A,]2 | [E,A,]3 [E,A,] [E,A,]2 [E,G,]2 | A,2 F,2 E,2 |] %17
w: |||
V:4
 x2 | x8 | x8 | x8 | x8 | x8 | x8 | x8 | x8 || A,>A, A,>A, A,2 x2 | x8 | x8 | A,>A, A,>A, A,2 x2 | %13
 A,>A, A,>A, x4 | x8 | x8 | A,,4 x2 |] %17

